wilib/img/svg/caixa_correio_down.svg

<svg xmlns="http://www.w3.org/2000/svg" xmlns:xlink="http://www.w3.org/1999/xlink" preserveAspectRatio="none" width="91" height="169" viewBox="0 0 91 169"><defs><linearGradient id="a" gradientUnits="userSpaceOnUse" x1="81.7" y1="100.35" x2="91.7" y2="62.05"><stop offset="0%" stop-color="#8A8A8A"/><stop offset="100%" stop-color="#FFF"/></linearGradient><linearGradient id="b" gradientUnits="userSpaceOnUse" x1="109.325" y1="66.225" x2="60.275" y2="22.175"><stop offset="0%" stop-color="#DDD"/><stop offset="100%" stop-color="#555"/></linearGradient><linearGradient id="c" gradientUnits="userSpaceOnUse" x1="58.9" y1="24.175" x2="58.9" y2="11.125"><stop offset="0%" stop-color="#3C3C3C"/><stop offset="100%" stop-color="#959595"/></linearGradient><linearGradient id="d" gradientUnits="userSpaceOnUse" x1="95" y1="-11.55" x2="95" y2="25.45"><stop offset="0%" stop-color="#8A8A8A"/><stop offset="100%" stop-color="#FFF"/></linearGradient><path fill-opacity=".302" d="M71.5 136.05q0-8.05-5.7-13.75-5.65-5.65-13.7-5.65-8.05 0-13.75 5.65-5.65 5.7-5.65 13.75t5.65 13.7q5.7 5.7 13.75 5.7t13.7-5.7q5.7-5.65 5.7-13.7z" id="e"/><g id="f"><path fill="#FF0" d="M51.6 86l-11-9v51.45q2.35 1.65 5.45 3.85 3.25 2.3 5.55 3.45V86z"/><path fill="#FC0" d="M52.6 86.8l-.5-.4-.5-.4v49.75q2.7 1.4 4.1 1.25 3.65-.35 8.1-2.55l.8-.4V83.6l-12 2.2-.5.6.5.4z"/><path fill="#CAA202" d="M64.6 11.6l-13 1.3V86l.5.4.5-.6 12-2.2v-72z"/><path fill="#D2D202" d="M51.6 12.9l-11 1.15V77l11 9V12.9z"/></g><g id="h"><path fill="#999" d="M74.6 53.5v-3.2l-11 1.1v6l11-1.1v-2.8m48-5.05V45.4l-11 1.1v6l11-1.1v-2.95z"/><path fill="url(#a)" d="M127.5 47.9l-4.9.55v2.95l-11 1.1v-2.95l-37 3.95v2.8l-11 1.1v-2.75l-9.1.95q-1 15.2-1 16.85 0 21.2 10.95 35.15 8.25 10.45 19.05 12.1.45.1.95.15 3.15.4 6.55.05 15.55-1.55 26.5-17.75 1.5-2.2 2.8-4.9 4.7-9.7 6.4-25.2 1.1-10.65.8-24.15z"/></g><g id="k"><path fill="url(#b)" d="M61.45 26.95l-6.05.6q-1.15 11.2-.85 25.3.05-.1.05-.25l70.35-7.2-63.5-18.45z"/><path fill="url(#c)" d="M62.4 10.6q0-4.85-.6-9.3-4.7 10.15-6.4 26.25l6.05-.6q.95-14.8.95-16.35z"/><path fill="url(#d)" d="M117.65-9.2Q109.4-20.1 98.6-21.9q-.45-.1-.95-.15-3.15-.45-6.55-.1-15.55 1.6-26.5 18.35-1.5 2.3-2.8 5.1.6 4.45.6 9.3 0 1.55-.95 16.35l63.5 18.45 2.55.75v-.25q.05-.4.05-.75 1.05-15.95 1.05-17.65 0-22.15-10.95-36.7z"/></g><path id="g" stroke="#CCC" stroke-linejoin="round" stroke-linecap="round" fill="none" d="M52.6 86.8l-.5-.4-.5-.4"/><path id="i" stroke="#999" stroke-linejoin="round" stroke-linecap="round" fill="none" d="M122.6 48.45l4.9-.55q.3 13.5-.8 24.15-1.7 15.5-6.4 25.2-1.3 2.7-2.8 4.9-10.95 16.2-26.5 17.75-3.4.35-6.55-.05-.5-.05-.95-.15-10.8-1.65-19.05-12.1Q53.5 93.65 53.5 72.45q0-1.65 1-16.85l9.1-.95m48-5.1l-37 3.95"/><path id="j" stroke="#CCC" stroke-linejoin="round" stroke-linecap="round" fill="none" d="M122.6 48.45V45.4l-11 1.1v6l11-1.1v-2.95zm-59 6.2V51.4l11-1.1v3.2m-11 1.15v2.75l11-1.1v-2.8"/><path id="l" stroke="#CCC" stroke-width="3" stroke-linejoin="round" stroke-linecap="round" fill="none" d="M127.55 45.15q1.05-15.95 1.05-17.65 0-22.15-10.95-36.7-8.25-10.9-19.05-12.7-.45-.1-.95-.15m29.85 68.2L54.6 53.6"/><path id="m" stroke="#000" stroke-linejoin="round" stroke-linecap="round" fill="none" d="M127.5 46.15v-.25q.05-.4.05-.75"/></defs><use xlink:href="#e" transform="matrix(.86603 .5 -.25772 .4464 8.05 68.7)"/><g transform="translate(-39.95 23.55)"><use xlink:href="#f"/><use xlink:href="#g"/></g><g transform="translate(-39.95 23.55)"><use xlink:href="#h"/><use xlink:href="#i"/><use xlink:href="#j"/></g><g transform="translate(-39.95 23.55)"><use xlink:href="#k"/><use xlink:href="#l"/><use xlink:href="#m"/></g></svg>

<svg xmlns="http://www.w3.org/2000/svg" version="1.1" xmlns:xlink="http://www.w3.org/1999/xlink" preserveAspectRatio="none" x="0px" y="0px" width="91px" height="169px" viewBox="0 0 91 169">
<defs>
<linearGradient id="Gradient_1" gradientUnits="userSpaceOnUse" x1="81.7" y1="100.35000000000001" x2="91.7" y2="62.05" spreadMethod="pad">
<stop  offset="0%" stop-color="#8A8A8A"/>

<stop  offset="100%" stop-color="#FFFFFF"/>
</linearGradient>

<linearGradient id="Gradient_2" gradientUnits="userSpaceOnUse" x1="109.325" y1="66.22500000000001" x2="60.27499999999999" y2="22.175" spreadMethod="pad">
<stop  offset="0%" stop-color="#DDDDDD"/>

<stop  offset="100%" stop-color="#555555"/>
</linearGradient>

<linearGradient id="Gradient_3" gradientUnits="userSpaceOnUse" x1="58.9" y1="24.174999999999997" x2="58.9" y2="11.124999999999998" spreadMethod="pad">
<stop  offset="0%" stop-color="#3C3C3C"/>

<stop  offset="100%" stop-color="#959595"/>
</linearGradient>

<linearGradient id="Gradient_4" gradientUnits="userSpaceOnUse" x1="95" y1="-11.55" x2="95" y2="25.45" spreadMethod="pad">
<stop  offset="0%" stop-color="#8A8A8A"/>

<stop  offset="100%" stop-color="#FFFFFF"/>
</linearGradient>

<g id="Layer0_0_MEMBER_0_MEMBER_0_FILL">
<path fill="#000000" fill-opacity="0.30196078431372547" stroke="none" d="
M 71.5 136.05
Q 71.5 128 65.8 122.3 60.15 116.65 52.1 116.65 44.05 116.65 38.35 122.3 32.7 128 32.7 136.05 32.7 144.1 38.35 149.75 44.05 155.45 52.1 155.45 60.15 155.45 65.8 149.75 71.5 144.1 71.5 136.05 Z"/>
</g>

<g id="Layer0_0_MEMBER_1_MEMBER_0_MEMBER_0_FILL">
<path fill="#FFFF00" stroke="none" d="
M 51.6 86
L 40.6 77 40.6 128.45
Q 42.95 130.1 46.05 132.3 49.3 134.6 51.6 135.75
L 51.6 86 Z"/>

<path fill="#FFCC00" stroke="none" d="
M 52.6 86.8
L 52.1 86.4 51.6 86 51.6 135.75
Q 54.3 137.15 55.7 137 59.35 136.65 63.8 134.45 64.2 134.25 64.6 134.05
L 64.6 83.6 52.6 85.8 52.1 86.4 52.6 86.8 Z"/>

<path fill="#CAA202" stroke="none" d="
M 64.6 11.6
L 51.6 12.9 51.6 86 52.1 86.4 52.6 85.8 64.6 83.6 64.6 11.6 Z"/>

<path fill="#D2D202" stroke="none" d="
M 51.6 12.9
L 40.6 14.05 40.6 77 51.6 86 51.6 12.9 Z"/>
</g>

<g id="Layer0_0_MEMBER_1_MEMBER_0_MEMBER_1_MEMBER_0_FILL">
<path fill="#999999" stroke="none" d="
M 74.6 53.5
L 74.6 50.3 63.6 51.4 63.6 54.65 63.6 57.4 74.6 56.3 74.6 53.5
M 122.6 48.45
L 122.6 45.4 111.6 46.5 111.6 49.55 111.6 52.5 122.6 51.4 122.6 48.45 Z"/>

<path fill="url(#Gradient_1)" stroke="none" d="
M 127.5 47.9
L 122.6 48.45 122.6 51.4 111.6 52.5 111.6 49.55 74.6 53.5 74.6 56.3 63.6 57.4 63.6 54.65 54.5 55.6
Q 53.5 70.8 53.5 72.45 53.5 93.65 64.45 107.6 72.7 118.05 83.5 119.7 83.95 119.8 84.45 119.85 87.6 120.25 91 119.9 106.55 118.35 117.5 102.15 119 99.95 120.3 97.25 125 87.55 126.7 72.05 127.8 61.4 127.5 47.9 Z"/>
</g>

<g id="Layer0_0_MEMBER_1_MEMBER_0_MEMBER_1_MEMBER_1_FILL">
<path fill="url(#Gradient_2)" stroke="none" d="
M 61.45 26.95
L 55.4 27.55
Q 54.25 38.75 54.55 52.85 54.6 52.75 54.6 52.6
L 124.95 45.4 61.45 26.95 Z"/>

<path fill="url(#Gradient_3)" stroke="none" d="
M 62.4 10.6
Q 62.4 5.75 61.8 1.3 57.1 11.45 55.4 27.55
L 61.45 26.95
Q 62.4 12.15 62.4 10.6 Z"/>

<path fill="url(#Gradient_4)" stroke="none" d="
M 117.65 -9.2
Q 109.4 -20.1 98.6 -21.9 98.15 -22 97.65 -22.05 94.5 -22.5 91.1 -22.15 75.55 -20.55 64.6 -3.8 63.1 -1.5 61.8 1.3 62.4 5.75 62.4 10.6 62.4 12.15 61.45 26.95
L 124.95 45.4 127.5 46.15
Q 127.5 46 127.5 45.9 127.55 45.5 127.55 45.15 128.6 29.2 128.6 27.5 128.6 5.35 117.65 -9.2 Z"/>
</g>

<path id="Layer0_0_MEMBER_1_MEMBER_0_MEMBER_0_1_STROKES" stroke="#CCCCCC" stroke-width="1" stroke-linejoin="round" stroke-linecap="round" fill="none" d="
M 52.6 86.8
L 52.1 86.4 51.6 86"/>

<path id="Layer0_0_MEMBER_1_MEMBER_0_MEMBER_1_MEMBER_0_1_STROKES" stroke="#999999" stroke-width="1" stroke-linejoin="round" stroke-linecap="round" fill="none" d="
M 122.6 48.45
L 127.5 47.9
Q 127.8 61.4 126.7 72.05 125 87.55 120.3 97.25 119 99.95 117.5 102.15 106.55 118.35 91 119.9 87.6 120.25 84.45 119.85 83.95 119.8 83.5 119.7 72.7 118.05 64.45 107.6 53.5 93.65 53.5 72.45 53.5 70.8 54.5 55.6
L 63.6 54.65
M 111.6 49.55
L 74.6 53.5"/>

<path id="Layer0_0_MEMBER_1_MEMBER_0_MEMBER_1_MEMBER_0_2_STROKES" stroke="#CCCCCC" stroke-width="1" stroke-linejoin="round" stroke-linecap="round" fill="none" d="
M 122.6 48.45
L 122.6 45.4 111.6 46.5 111.6 49.55 111.6 52.5 122.6 51.4 122.6 48.45 Z
M 63.6 54.65
L 63.6 51.4 74.6 50.3 74.6 53.5
M 63.6 54.65
L 63.6 57.4 74.6 56.3 74.6 53.5"/>

<path id="Layer0_0_MEMBER_1_MEMBER_0_MEMBER_1_MEMBER_1_1_STROKES" stroke="#CCCCCC" stroke-width="3" stroke-linejoin="round" stroke-linecap="round" fill="none" d="
M 127.55 45.15
Q 128.6 29.2 128.6 27.5 128.6 5.35 117.65 -9.2 109.4 -20.1 98.6 -21.9 98.15 -22 97.65 -22.05
M 127.5 46.15
L 54.6 53.6"/>

<path id="Layer0_0_MEMBER_1_MEMBER_0_MEMBER_1_MEMBER_1_2_STROKES" stroke="#000000" stroke-width="1" stroke-linejoin="round" stroke-linecap="round" fill="none" d="
M 127.5 46.15
Q 127.5 46 127.5 45.9 127.55 45.5 127.55 45.15"/>
</defs>

<g transform="matrix( 0.86602783203125, 0.5, -0.257720947265625, 0.4463958740234375, 8.05,68.7) ">
<use xlink:href="#Layer0_0_MEMBER_0_MEMBER_0_FILL"/>
</g>

<g transform="matrix( 1, 0, 0, 1, -39.95,23.55) ">
<use xlink:href="#Layer0_0_MEMBER_1_MEMBER_0_MEMBER_0_FILL"/>

<use xlink:href="#Layer0_0_MEMBER_1_MEMBER_0_MEMBER_0_1_STROKES"/>
</g>

<g transform="matrix( 1, 0, 0, 1, -39.95,23.55) ">
<use xlink:href="#Layer0_0_MEMBER_1_MEMBER_0_MEMBER_1_MEMBER_0_FILL"/>

<use xlink:href="#Layer0_0_MEMBER_1_MEMBER_0_MEMBER_1_MEMBER_0_1_STROKES"/>

<use xlink:href="#Layer0_0_MEMBER_1_MEMBER_0_MEMBER_1_MEMBER_0_2_STROKES"/>
</g>

<g transform="matrix( 1, 0, 0, 1, -39.95,23.55) ">
<use xlink:href="#Layer0_0_MEMBER_1_MEMBER_0_MEMBER_1_MEMBER_1_FILL"/>

<use xlink:href="#Layer0_0_MEMBER_1_MEMBER_0_MEMBER_1_MEMBER_1_1_STROKES"/>

<use xlink:href="#Layer0_0_MEMBER_1_MEMBER_0_MEMBER_1_MEMBER_1_2_STROKES"/>
</g>
</svg>
